content/updates/img/illus-connections.svg

<?xml version="1.0" encoding="UTF-8"?>
<svg width="455px" height="473px" viewBox="0 0 455 473" version="1.1" xmlns="http://www.w3.org/2000/svg" xmlns:xlink="http://www.w3.org/1999/xlink">
    <title>connectivity</title>
    <g id="connectivity" stroke="none" stroke-width="1" fill="none" fill-rule="evenodd">
        <g id="akeneo-ico-pim-connections" transform="translate(1.000000, 20.000000)">
            <line x1="380.26" y1="9.86" x2="380.37" y2="0.34" id="Path" stroke="#B0B0DB" stroke-width="2.68066896" stroke-linecap="round"></line>
            <line x1="375.56" y1="5.04" x2="385.07" y2="5.16" id="Path" stroke="#B0B0DB" stroke-width="2.68066896" stroke-linecap="round"></line>
            <line x1="5.18" y1="371.9" x2="5.29" y2="362.39" id="Path" stroke="#B0B0DB" stroke-width="2.68066896" stroke-linecap="round"></line>
            <line x1="0.47" y1="367.09" x2="9.99" y2="367.2" id="Path" stroke="#B0B0DB" stroke-width="2.68066896" stroke-linecap="round"></line>
            <path d="M274.41,19.66 C317.58,27.66 377.67,44.93 418.98,120.11 C456.44,188.28 478.31,292.32 406.8,357.27 C335.29,422.22 118.91,441.72 37.23,355.35 C-44.45,268.98 19.49,-27.38 274.41,19.66 Z" id="Path" fill="#EFEFF8" fill-rule="nonzero"></path>
            <line x1="343.05" y1="433.75" x2="343.16" y2="424.24" id="Path" stroke="#B0B0DB" stroke-width="2.68066896" stroke-linecap="round"></line>
            <line x1="338.35" y1="428.94" x2="347.86" y2="429.05" id="Path" stroke="#B0B0DB" stroke-width="2.68066896" stroke-linecap="round"></line>
            <circle id="Oval" fill="#DFE1F0" fill-rule="nonzero" cx="236.95" cy="221.95" r="99.33"></circle>
            <circle id="Oval" fill="#FFFFFF" fill-rule="nonzero" cx="228.48" cy="213.48" r="99.33"></circle>
            <path d="M257.5,264.34 C257.93,265.63 258.32,266.5 258.43,266.79 C258.43,266.79 258.43,266.79 258.43,266.79 L258.43,266.79 C255.51,238.66 271.43,226.93 276.59,208.24 C276.624864,207.930406 276.678294,207.623186 276.75,207.32 C276.859766,206.88542 276.94325,206.444621 277,206 C277.76,200.83 275.64,194.81 271.63,188.54 L271.57,188.44 C271.24,187.92 270.89,187.44 270.57,186.88 L270.57,186.88 C269.91,185.88 269.2,184.97 268.47,184 C268.39,183.91 268.32,183.8 268.24,183.7 L267.62,182.92 L266.98,182.11 L266.32,181.32 L265.64,180.51 L265.14,179.94 C258.207593,172.225638 250.447587,165.297301 242,159.28 L242,159.28 C243.151048,169.121683 243.244916,179.058329 242.28,188.92 C241.07,199.13 237.41,211.01 232.35,221.78 C220.49,220.78 208.35,218.06 198.91,214.03 C189.855761,209.971325 181.268806,204.941871 173.3,199.03 L173.6,201.65 C173.6,201.91 173.67,202.17 173.71,202.44 C173.79,203.06 173.87,203.68 173.96,204.31 C173.96,204.6 174.04,204.89 174.09,205.17 C174.18,205.81 174.27,206.43 174.37,207.05 C174.37,207.3 174.45,207.56 174.5,207.81 C174.63,208.6 174.76,209.38 174.9,210.17 C174.894377,210.246564 174.894377,210.323436 174.9,210.4 C175.06,211.31 175.24,212.21 175.42,213.11 C175.410534,213.17968 175.410534,213.25032 175.42,213.32 C175.58,214.13 175.75,214.93 175.92,215.73 C175.92,215.89 175.99,216.05 176.03,216.22 C176.19,216.95 176.36,217.67 176.53,218.4 C176.53,218.54 176.61,218.68 176.64,218.83 C176.84,219.66 177.05,220.49 177.26,221.31 L177.26,221.31 C177.96,223.95 178.73,226.5 179.56,228.94 C179.558563,228.969983 179.558563,229.000017 179.56,229.03 C180.853195,232.87137 182.458552,236.600479 184.36,240.18 C184.62,240.66 184.89,241.13 185.16,241.59 C185.16,241.59 185.16,241.59 185.16,241.64 L185.16,241.64 C185.4,242.06 185.65,242.47 185.9,242.87 L185.9,242.87 L185.9,242.92 C186.17,243.35 186.44,243.77 186.72,244.17 L186.72,244.17 L186.84,244.33 L186.84,244.33 C187.2,244.86 187.58,245.33 187.94,245.84 L188.13,246.08 C188.155708,246.108075 188.179117,246.138172 188.2,246.17 C188.63,246.71 189.06,247.23 189.52,247.71 L189.52,247.71 C189.83,248.06 190.15,248.39 190.47,248.71 L190.88,249.09 L191.49,249.65 L191.95,250.02 C192.14,250.19 192.35,250.34 192.54,250.49 C192.73,250.64 192.85,250.72 193.02,250.83 C193.19,250.94 193.42,251.12 193.63,251.25 L194.1,251.55 L194.76,251.92 L195.21,252.15 L195.97,252.49 L196.35,252.65 C196.728787,252.802357 197.116106,252.932577 197.51,253.04 C197.78,253.12 198,253.2 198.21,253.28 C216.99,258.28 235.28,250.38 258.21,266.78" id="Path" fill="#9452BA" fill-rule="nonzero"></path>
            <line x1="233.76" y1="4" x2="233.76" y2="83.91" id="Path" stroke="#B0B0DB" stroke-width="13.5116331" stroke-linecap="round" stroke-linejoin="round"></line>
            <line x1="233.76" y1="83.91" x2="258.18" y2="59.49" id="Path" stroke="#B0B0DB" stroke-width="13.5116331" stroke-linecap="round" stroke-linejoin="round"></line>
            <line x1="233.76" y1="83.9" x2="209.33" y2="59.48" id="Path" stroke="#B0B0DB" stroke-width="13.5116331" stroke-linecap="round" stroke-linejoin="round"></line>
            <line x1="233.76" y1="424" x2="233.76" y2="344.09" id="Path" stroke="#B0B0DB" stroke-width="13.5116331" stroke-linecap="round" stroke-linejoin="round"></line>
            <line x1="233.76" y1="344.09" x2="209.33" y2="368.51" id="Path" stroke="#B0B0DB" stroke-width="13.5116331" stroke-linecap="round" stroke-linejoin="round"></line>
            <line x1="233.76" y1="344.1" x2="258.18" y2="368.52" id="Path" stroke="#B0B0DB" stroke-width="13.5116331" stroke-linecap="round" stroke-linejoin="round"></line>
            <line x1="419.7" y1="212.59" x2="359.79" y2="212.59" id="Path" stroke="#B0B0DB" stroke-width="13.5116331" stroke-linecap="round" stroke-linejoin="round"></line>
            <line x1="359.79" y1="212.59" x2="384.22" y2="237.02" id="Path" stroke="#B0B0DB" stroke-width="13.5116331" stroke-linecap="round" stroke-linejoin="round"></line>
            <line x1="359.8" y1="212.59" x2="384.23" y2="188.17" id="Path" stroke="#B0B0DB" stroke-width="13.5116331" stroke-linecap="round" stroke-linejoin="round"></line>
            <line x1="38.3" y1="212.59" x2="98.21" y2="212.59" id="Path" stroke="#B0B0DB" stroke-width="13.5116331" stroke-linecap="round" stroke-linejoin="round"></line>
            <line x1="98.21" y1="212.59" x2="73.78" y2="188.17" id="Path" stroke="#B0B0DB" stroke-width="13.5116331" stroke-linecap="round" stroke-linejoin="round"></line>
            <line x1="98.2" y1="212.59" x2="73.77" y2="237.02" id="Path" stroke="#B0B0DB" stroke-width="13.5116331" stroke-linecap="round" stroke-linejoin="round"></line>
            <line x1="394.9" y1="54.83" x2="324.35" y2="125.38" id="Path" stroke="#DFE1F0" stroke-width="13.5116331" stroke-linecap="round" stroke-linejoin="round"></line>
            <line x1="324.35" y1="125.38" x2="358.89" y2="125.38" id="Path" stroke="#DFE1F0" stroke-width="13.5116331" stroke-linecap="round" stroke-linejoin="round"></line>
            <line x1="324.36" y1="125.37" x2="324.36" y2="90.83" id="Path" stroke="#DFE1F0" stroke-width="13.5116331" stroke-linecap="round" stroke-linejoin="round"></line>
            <line x1="69.83" y1="379.9" x2="140.38" y2="309.35" id="Path" stroke="#DFE1F0" stroke-width="13.5116331" stroke-linecap="round" stroke-linejoin="round"></line>
            <line x1="140.38" y1="309.35" x2="105.83" y2="309.35" id="Path" stroke="#DFE1F0" stroke-width="13.5116331" stroke-linecap="round" stroke-linejoin="round"></line>
            <line x1="140.37" y1="309.36" x2="140.37" y2="343.9" id="Path" stroke="#DFE1F0" stroke-width="13.5116331" stroke-linecap="round" stroke-linejoin="round"></line>
            <line x1="393.03" y1="376.04" x2="322.48" y2="305.49" id="Path" stroke="#DFE1F0" stroke-width="13.5116331" stroke-linecap="round" stroke-linejoin="round"></line>
            <line x1="322.48" y1="305.49" x2="322.48" y2="340.03" id="Path" stroke="#DFE1F0" stroke-width="13.5116331" stroke-linecap="round" stroke-linejoin="round"></line>
            <line x1="322.49" y1="305.49" x2="357.03" y2="305.49" id="Path" stroke="#DFE1F0" stroke-width="13.5116331" stroke-linecap="round" stroke-linejoin="round"></line>
            <line x1="66.96" y1="49.97" x2="137.51" y2="120.52" id="Path" stroke="#DFE1F0" stroke-width="13.5116331" stroke-linecap="round" stroke-linejoin="round"></line>
            <line x1="137.51" y1="120.52" x2="137.51" y2="85.98" id="Path" stroke="#DFE1F0" stroke-width="13.5116331" stroke-linecap="round" stroke-linejoin="round"></line>
            <line x1="137.51" y1="120.51" x2="102.96" y2="120.51" id="Path" stroke="#DFE1F0" stroke-width="13.5116331" stroke-linecap="round" stroke-linejoin="round"></line>
        </g>
    </g>
</svg>

<svg width="455" height="473" xmlns="http://www.w3.org/2000/svg">
  <g transform="translate(1 20)" fill="none" fill-rule="evenodd">
    <path stroke="#B0B0DB" stroke-width="2.681" stroke-linecap="round" d="M380.26 9.86l.11-9.52M375.56 5.04l9.51.12M5.18 371.9l.11-9.51M.47 367.09l9.52.11"/>
    <path d="M274.41 19.66c43.17 8 103.26 25.27 144.57 100.45 37.46 68.17 59.33 172.21-12.18 237.16-71.51 64.95-287.89 84.45-369.57-1.92S19.49-27.38 274.41 19.66z" fill="#EFEFF8" fill-rule="nonzero"/>
    <path stroke="#B0B0DB" stroke-width="2.681" stroke-linecap="round" d="M343.05 433.75l.11-9.51M338.35 428.94l9.51.11"/>
    <circle fill="#DFE1F0" fill-rule="nonzero" cx="236.95" cy="221.95" r="99.33"/>
    <circle fill="#FFF" fill-rule="nonzero" cx="228.48" cy="213.48" r="99.33"/>
    <path d="M257.5 264.34c.43 1.29.82 2.16.93 2.45-2.92-28.13 13-39.86 18.16-58.55a7.78 7.78 0 01.16-.92c.11-.435.193-.875.25-1.32.76-5.17-1.36-11.19-5.37-17.46l-.06-.1c-.33-.52-.68-1-1-1.56-.66-1-1.37-1.91-2.1-2.88-.08-.09-.15-.2-.23-.3l-.62-.78-.64-.81-.66-.79-.68-.81-.5-.57A141.42 141.42 0 00242 159.28a138.8 138.8 0 01.28 29.64c-1.21 10.21-4.87 22.09-9.93 32.86-11.86-1-24-3.72-33.44-7.75a137.12 137.12 0 01-25.61-15l.3 2.62c0 .26.07.52.11.79.08.62.16 1.24.25 1.87 0 .29.08.58.13.86.09.64.18 1.26.28 1.88 0 .25.08.51.13.76.13.79.26 1.57.4 2.36a1.57 1.57 0 000 .23c.16.91.34 1.81.52 2.71a.78.78 0 000 .21c.16.81.33 1.61.5 2.41 0 .16.07.32.11.49.16.73.33 1.45.5 2.18 0 .14.08.28.11.43.2.83.41 1.66.62 2.48.7 2.64 1.47 5.19 2.3 7.63a.94.94 0 000 .09 74.3 74.3 0 004.8 11.15c.26.48.53.95.8 1.41v.05c.24.42.49.83.74 1.23v.05c.27.43.54.85.82 1.25l.12.16c.36.53.74 1 1.1 1.51l.19.24a22.19 22.19 0 001.39 1.63c.31.35.63.68.95 1l.41.38.61.56.46.37c.19.17.4.32.59.47.19.15.31.23.48.34.17.11.4.29.61.42l.47.3.66.37.45.23.76.34.38.16c.379.152.766.283 1.16.39.27.08.49.16.7.24 18.78 5 37.07-2.9 60 13.5" fill="#9452BA" fill-rule="nonzero"/>
    <path stroke="#B0B0DB" stroke-width="13.512" stroke-linecap="round" stroke-linejoin="round" d="M233.76 4v79.91M233.76 83.91l24.42-24.42M233.76 83.9l-24.43-24.42M233.76 424v-79.91M233.76 344.09l-24.43 24.42M233.76 344.1l24.42 24.42M419.7 212.59h-59.91M359.79 212.59l24.43 24.43M359.8 212.59l24.43-24.42M38.3 212.59h59.91M98.21 212.59l-24.43-24.42M98.2 212.59l-24.43 24.43"/>
    <path stroke="#DFE1F0" stroke-width="13.512" stroke-linecap="round" stroke-linejoin="round" d="M394.9 54.83l-70.55 70.55M324.35 125.38h34.54M324.36 125.37V90.83M69.83 379.9l70.55-70.55M140.38 309.35h-34.55M140.37 309.36v34.54M393.03 376.04l-70.55-70.55M322.48 305.49v34.54M322.49 305.49h34.54M66.96 49.97l70.55 70.55M137.51 120.52V85.98M137.51 120.51h-34.55"/>
  </g>
</svg>
